icons/mini/chat-bubble-left.svg

<svg width="20" height="20" viewBox="0 0 20 20" fill="none" xmlns="http://www.w3.org/2000/svg">
<path fill-rule="evenodd" clip-rule="evenodd" d="M3.42976 2.52374C5.56943 2.17905 7.76407 2 10 2C12.2359 2 14.4306 2.17905 16.5702 2.52374C18.0066 2.75513 19 4.01325 19 5.42588V10.5741C19 11.9867 18.0066 13.2449 16.5702 13.4763C14.8747 13.7494 13.1447 13.9185 11.3869 13.977C11.1832 13.9837 10.9953 14.0654 10.8594 14.2013L7.28033 17.7803C7.06583 17.9948 6.74324 18.059 6.46299 17.9429C6.18273 17.8268 6 17.5533 6 17.25V13.8073C5.13517 13.7236 4.27814 13.6129 3.42976 13.4763C1.99339 13.2449 1 11.9868 1 10.5741V5.42588C1 4.01325 1.99339 2.75513 3.42976 2.52374Z" fill="#0F172A"/>
</svg>

<svg xmlns="http://www.w3.org/2000/svg" viewBox="0 0 20 20" fill="currentColor" aria-hidden="true" data-slot="icon">
  <path fill-rule="evenodd" d="M3.43 2.524A41.29 41.29 0 0 1 10 2c2.236 0 4.43.18 6.57.524 1.437.231 2.43 1.49 2.43 2.902v5.148c0 1.413-.993 2.67-2.43 2.902a41.202 41.202 0 0 1-5.183.501.78.78 0 0 0-.528.224l-3.579 3.58A.75.75 0 0 1 6 17.25v-3.443a41.033 41.033 0 0 1-2.57-.33C1.993 13.244 1 11.986 1 10.573V5.426c0-1.413.993-2.67 2.43-2.902Z" clip-rule="evenodd"/>
</svg>
